; generated by Slic3r 1.2.9 on 2019-08-14 at 18:00:32

; For G-Code Optimization - See Desktop>Robot Projects>Preparing To Print>Printing Instructions

; external perimeters extrusion width = 11.00mm
; perimeters extrusion width = 11.00mm
; infill extrusion width = 8.50mm
; solid infill extrusion width = 8.50mm
; top infill extrusion width = 8.50mm

M190 S95 ; set bed temperature
M104 S225 ; set temperature

M109 S225 ; wait for temperature to be reached
G21 ; set units to millimeters
G90 ; use absolute coordinates
M82 ; use absolute distances for extrusion
G92 E0 ; reset extrusion distance
G1 E-0.10000 F4200.00000 ; retract
G92 E0 ; reset extrusion distance
G1 Z20.000 F30000.000 ; lift Z
G1 X-153.572 Y-101.072 F30000.000 ; move to first infill point
G1 Z3.000 F30000.000 ; restore layer Z
G1 E0.10000 F4200.00000 ; unretract
G1 X153.572 Y-101.072 E959.19583 F4200.000 ; infill
G1 X153.572 Y101.072 E1590.41574 ; infill
G1 X-153.572 Y101.072 E2549.51156 ; infill
G1 X-153.572 Y-99.722 E3176.51593 ; infill
G1 F24000
G1 X-153.572 Y-101.072 F30000.000 ; move to first wipe and retract point
G1 X153.572 Y-101.072 E0.0 F4200.000 ; wipe and retract
G1 E3176.41593 F4200.00000 ; retract
G92 E0 ; reset extrusion distance
G1 Z23.000 F30000.000 ; lift Z
G1 X-145.696 Y-93.196 F30000.000 ; move to first infill point
G1 Z3.000 F30000.000 ; restore layer Z
G1 E0.10000 F4200.00000 ; unretract
G1 X145.696 Y-93.196 E910.01143 F4200.000 ; infill
G1 X145.696 Y93.196 E1492.04694 ; infill
G1 X-145.696 Y93.196 E2401.95836 ; infill
G1 X-145.696 Y-91.846 E2979.77833 ; infill
G1 F24000
G1 X-145.696 Y-93.196 F30000.000 ; move to first wipe and retract point
G1 X145.696 Y-93.196 E0.0 F4200.000 ; wipe and retract
G1 E2979.67833 F4200.00000 ; retract
G92 E0 ; reset extrusion distance
G1 Z23.000 F30000.000 ; lift Z
G1 X-137.832 Y-85.311 F30000.000 ; move to first infill point
G1 Z3.000 F30000.000 ; restore layer Z
G1 E0.10000 F4200.00000 ; unretract
G1 X137.775 Y-85.311 E860.71847 F4200.000 ; infill
G1 X137.775 Y85.296 E1393.46103 ; infill
G1 X-137.832 Y85.296 E2254.07951 ; infill
G1 X-137.832 Y-83.961 E2782.60652 ; infill
G1 F24000
G1 X-137.832 Y-85.311 F30000.000 ; move to first wipe and retract point
G1 X137.775 Y-85.311 E0.0 F4200.000 ; wipe and retract
G1 E2782.50652 F4200.00000 ; retract
G92 E0 ; reset extrusion distance
G1 Z23.000 F30000.000 ; lift Z
G1 X-129.956 Y-77.436 F30000.000 ; move to first infill point
G1 Z3.000 F30000.000 ; restore layer Z
G1 E0.10000 F4200.00000 ; unretract
G1 X129.900 Y-77.436 E811.53407 F4200.000 ; infill
G1 X129.900 Y77.420 E1295.09223 ; infill
G1 X-129.956 Y77.420 E2106.52631 ; infill
G1 X-129.956 Y-76.086 E2585.86892 ; infill
G1 F24000
G1 X-129.956 Y-77.436 F30000.000 ; move to first wipe and retract point
G1 X129.900 Y-77.436 E0.0 F4200.000 ; wipe and retract
G1 E2585.76892 F4200.00000 ; retract
G92 E0 ; reset extrusion distance
G1 Z23.000 F30000.000 ; lift Z
G1 X-153.572 Y-101.072 F30000.000 ; move to first infill point
G1 Z6.000 F30000.000 ; restore layer Z
G1 E0.10000 F4200.00000 ; unretract
G1 X153.572 Y-101.072 E959.19583 F4200.000 ; infill
G1 X153.572 Y101.072 E1590.41574 ; infill
G1 X-153.572 Y101.072 E2549.51156 ; infill
G1 X-153.572 Y-99.722 E3176.51593 ; infill
G1 F24000
G1 X-153.572 Y-101.072 F30000.000 ; move to first wipe and retract point
G1 X153.572 Y-101.072 E0.0 F4200.000 ; wipe and retract
G1 E3176.41593 F4200.00000 ; retract
G92 E0 ; reset extrusion distance
G1 Z26.000 F30000.000 ; lift Z
G1 X-145.696 Y-93.196 F30000.000 ; move to first infill point
G1 Z6.000 F30000.000 ; restore layer Z
G1 E0.10000 F4200.00000 ; unretract
G1 X145.696 Y-93.196 E910.01143 F4200.000 ; infill
G1 X145.696 Y93.196 E1492.04694 ; infill
G1 X-145.696 Y93.196 E2401.95836 ; infill
G1 X-145.696 Y-91.846 E2979.77833 ; infill
G1 F24000
G1 X-145.696 Y-93.196 F30000.000 ; move to first wipe and retract point
G1 X145.696 Y-93.196 E0.0 F4200.000 ; wipe and retract
G1 E2979.67833 F4200.00000 ; retract
G92 E0 ; reset extrusion distance
G1 Z26.000 F30000.000 ; lift Z
G1 X-137.832 Y-85.311 F30000.000 ; move to first infill point
G1 Z6.000 F30000.000 ; restore layer Z
G1 E0.10000 F4200.00000 ; unretract
G1 X137.775 Y-85.311 E860.71847 F4200.000 ; infill
G1 X137.775 Y85.296 E1393.46103 ; infill
G1 X-137.832 Y85.296 E2254.07951 ; infill
G1 X-137.832 Y-83.961 E2782.60652 ; infill
G1 F24000
G1 X-137.832 Y-85.311 F30000.000 ; move to first wipe and retract point
G1 X137.775 Y-85.311 E0.0 F4200.000 ; wipe and retract
G1 E2782.50652 F4200.00000 ; retract
G92 E0 ; reset extrusion distance
G1 Z26.000 F30000.000 ; lift Z
G1 X-129.956 Y-77.436 F30000.000 ; move to first infill point
G1 Z6.000 F30000.000 ; restore layer Z
G1 E0.10000 F4200.00000 ; unretract
G1 X129.900 Y-77.436 E811.53407 F4200.000 ; infill
G1 X129.900 Y77.420 E1295.09223 ; infill
G1 X-129.956 Y77.420 E2106.52631 ; infill
G1 X-129.956 Y-76.086 E2585.86892 ; infill
G1 F24000
G1 X-129.956 Y-77.436 F30000.000 ; move to first wipe and retract point
G1 X129.900 Y-77.436 E0.0 F4200.000 ; wipe and retract
G1 E2585.76892 F4200.00000 ; retract
G92 E0 ; reset extrusion distance
G1 Z26.000 F30000.000 ; lift Z
G1 X-153.572 Y-101.072 F30000.000 ; move to first infill point
G1 Z9.000 F30000.000 ; restore layer Z
G1 E0.10000 F4200.00000 ; unretract
G1 X153.572 Y-101.072 E959.19583 F4200.000 ; infill
G1 X153.572 Y101.072 E1590.41574 ; infill
G1 X-153.572 Y101.072 E2549.51156 ; infill
G1 X-153.572 Y-99.722 E3176.51593 ; infill
G1 F24000
G1 X-153.572 Y-101.072 F30000.000 ; move to first wipe and retract point
G1 X153.572 Y-101.072 E0.0 F4200.000 ; wipe and retract
G1 E3176.41593 F4200.00000 ; retract
G92 E0 ; reset extrusion distance
G1 Z29.000 F30000.000 ; lift Z
G1 X-145.696 Y-93.196 F30000.000 ; move to first infill point
G1 Z9.000 F30000.000 ; restore layer Z
G1 E0.10000 F4200.00000 ; unretract
G1 X145.696 Y-93.196 E910.01143 F4200.000 ; infill
G1 X145.696 Y93.196 E1492.04694 ; infill
G1 X-145.696 Y93.196 E2401.95836 ; infill
G1 X-145.696 Y-91.846 E2979.77833 ; infill
G1 F24000
G1 X-145.696 Y-93.196 F30000.000 ; move to first wipe and retract point
G1 X145.696 Y-93.196 E0.0 F4200.000 ; wipe and retract
G1 E2979.67833 F4200.00000 ; retract
G92 E0 ; reset extrusion distance
G1 Z29.000 F30000.000 ; lift Z
G1 X-137.832 Y-85.311 F30000.000 ; move to first infill point
G1 Z9.000 F30000.000 ; restore layer Z
G1 E0.10000 F4200.00000 ; unretract
G1 X137.775 Y-85.311 E860.71847 F4200.000 ; infill
G1 X137.775 Y85.296 E1393.46103 ; infill
G1 X-137.832 Y85.296 E2254.07951 ; infill
G1 X-137.832 Y-83.961 E2782.60652 ; infill
G1 F24000
G1 X-137.832 Y-85.311 F30000.000 ; move to first wipe and retract point
G1 X137.775 Y-85.311 E0.0 F4200.000 ; wipe and retract
G1 E2782.50652 F4200.00000 ; retract
G92 E0 ; reset extrusion distance
G1 Z29.000 F30000.000 ; lift Z
G1 X-129.956 Y-77.436 F30000.000 ; move to first infill point
G1 Z9.000 F30000.000 ; restore layer Z
G1 E0.10000 F4200.00000 ; unretract
G1 X129.900 Y-77.436 E811.53407 F4200.000 ; infill
G1 X129.900 Y77.420 E1295.09223 ; infill
G1 X-129.956 Y77.420 E2106.52631 ; infill
G1 X-129.956 Y-76.086 E2585.86892 ; infill
G1 F24000
G1 X-129.956 Y-77.436 F30000.000 ; move to first wipe and retract point
G1 X129.900 Y-77.436 E0.0 F4200.000 ; wipe and retract
G1 E2585.76892 F4200.00000 ; retract
G92 E0 ; reset extrusion distance
G1 Z29.000 F30000.000 ; lift Z
G1 X-153.572 Y-101.072 F30000.000 ; move to first infill point
G1 Z12.000 F30000.000 ; restore layer Z
G1 E0.10000 F4200.00000 ; unretract
G1 X153.572 Y-101.072 E959.19583 F4200.000 ; infill
G1 X153.572 Y101.072 E1590.41574 ; infill
G1 X-153.572 Y101.072 E2549.51156 ; infill
G1 X-153.572 Y-99.722 E3176.51593 ; infill
G1 F24000
G1 X-153.572 Y-101.072 F30000.000 ; move to first wipe and retract point
G1 X153.572 Y-101.072 E0.0 F4200.000 ; wipe and retract
G1 E3176.41593 F4200.00000 ; retract
G92 E0 ; reset extrusion distance
G1 Z32.000 F30000.000 ; lift Z
G1 X-145.696 Y-93.196 F30000.000 ; move to first infill point
G1 Z12.000 F30000.000 ; restore layer Z
G1 E0.10000 F4200.00000 ; unretract
G1 X145.696 Y-93.196 E910.01143 F4200.000 ; infill
G1 X145.696 Y93.196 E1492.04694 ; infill
G1 X-145.696 Y93.196 E2401.95836 ; infill
G1 X-145.696 Y-91.846 E2979.77833 ; infill
G1 F24000
G1 X-145.696 Y-93.196 F30000.000 ; move to first wipe and retract point
G1 X145.696 Y-93.196 E0.0 F4200.000 ; wipe and retract
G1 E2979.67833 F4200.00000 ; retract
G92 E0 ; reset extrusion distance
G1 Z32.000 F30000.000 ; lift Z
G1 X-137.832 Y-85.311 F30000.000 ; move to first infill point
G1 Z12.000 F30000.000 ; restore layer Z
G1 E0.10000 F4200.00000 ; unretract
G1 X137.775 Y-85.311 E860.71847 F4200.000 ; infill
G1 X137.775 Y85.296 E1393.46103 ; infill
G1 X-137.832 Y85.296 E2254.07951 ; infill
G1 X-137.832 Y-83.961 E2782.60652 ; infill
G1 F24000
G1 X-137.832 Y-85.311 F30000.000 ; move to first wipe and retract point
G1 X137.775 Y-85.311 E0.0 F4200.000 ; wipe and retract
G1 E2782.50652 F4200.00000 ; retract
G92 E0 ; reset extrusion distance
G1 Z32.000 F30000.000 ; lift Z
G1 X-129.956 Y-77.436 F30000.000 ; move to first infill point
G1 Z12.000 F30000.000 ; restore layer Z
G1 E0.10000 F4200.00000 ; unretract
G1 X129.900 Y-77.436 E811.53407 F4200.000 ; infill
G1 X129.900 Y77.420 E1295.09223 ; infill
G1 X-129.956 Y77.420 E2106.52631 ; infill
G1 X-129.956 Y-76.086 E2585.86892 ; infill
G1 F24000
G1 X-129.956 Y-77.436 F30000.000 ; move to first wipe and retract point
G1 X129.900 Y-77.436 E0.0 F4200.000 ; wipe and retract
G1 E2585.76892 F4200.00000 ; retract
G92 E0 ; reset extrusion distance
G1 Z32.000 F30000.000 ; lift Z
G1 X-153.572 Y-101.072 F30000.000 ; move to first infill point
G1 Z15.000 F30000.000 ; restore layer Z
G1 E0.10000 F4200.00000 ; unretract
G1 X153.572 Y-101.072 E959.19583 F4200.000 ; infill
G1 X153.572 Y101.072 E1590.41574 ; infill
G1 X-153.572 Y101.072 E2549.51156 ; infill
G1 X-153.572 Y-99.722 E3176.51593 ; infill
G1 F24000
G1 X-153.572 Y-101.072 F30000.000 ; move to first wipe and retract point
G1 X153.572 Y-101.072 E0.0 F4200.000 ; wipe and retract
G1 E3176.41593 F4200.00000 ; retract
G92 E0 ; reset extrusion distance
G1 Z35.000 F30000.000 ; lift Z
G1 X-145.696 Y-93.196 F30000.000 ; move to first infill point
G1 Z15.000 F30000.000 ; restore layer Z
G1 E0.10000 F4200.00000 ; unretract
G1 X145.696 Y-93.196 E910.01143 F4200.000 ; infill
G1 X145.696 Y93.196 E1492.04694 ; infill
G1 X-145.696 Y93.196 E2401.95836 ; infill
G1 X-145.696 Y-91.846 E2979.77833 ; infill
G1 F24000
G1 X-145.696 Y-93.196 F30000.000 ; move to first wipe and retract point
G1 X145.696 Y-93.196 E0.0 F4200.000 ; wipe and retract
G1 E2979.67833 F4200.00000 ; retract
G92 E0 ; reset extrusion distance
G1 Z35.000 F30000.000 ; lift Z
G1 X-137.832 Y-85.311 F30000.000 ; move to first infill point
G1 Z15.000 F30000.000 ; restore layer Z
G1 E0.10000 F4200.00000 ; unretract
G1 X137.775 Y-85.311 E860.71847 F4200.000 ; infill
G1 X137.775 Y85.296 E1393.46103 ; infill
G1 X-137.832 Y85.296 E2254.07951 ; infill
G1 X-137.832 Y-83.961 E2782.60652 ; infill
G1 F24000
G1 X-137.832 Y-85.311 F30000.000 ; move to first wipe and retract point
G1 X137.775 Y-85.311 E0.0 F4200.000 ; wipe and retract
G1 E2782.50652 F4200.00000 ; retract
G92 E0 ; reset extrusion distance
G1 Z35.000 F30000.000 ; lift Z
G1 X-129.956 Y-77.436 F30000.000 ; move to first infill point
G1 Z15.000 F30000.000 ; restore layer Z
G1 E0.10000 F4200.00000 ; unretract
G1 X129.900 Y-77.436 E811.53407 F4200.000 ; infill
G1 X129.900 Y77.420 E1295.09223 ; infill
G1 X-129.956 Y77.420 E2106.52631 ; infill
G1 X-129.956 Y-76.086 E2585.86892 ; infill
G1 F24000
G1 X-129.956 Y-77.436 F30000.000 ; move to first wipe and retract point
G1 X129.900 Y-77.436 E0.0 F4200.000 ; wipe and retract
G1 E2585.76892 F4200.00000 ; retract
G92 E0 ; reset extrusion distance
G1 Z35.000 F30000.000 ; lift Z
G1 X-153.572 Y-101.072 F30000.000 ; move to first infill point
G1 Z18.000 F30000.000 ; restore layer Z
G1 E0.10000 F4200.00000 ; unretract
G1 X153.572 Y-101.072 E959.19583 F4200.000 ; infill
G1 X153.572 Y101.072 E1590.41574 ; infill
G1 X-153.572 Y101.072 E2549.51156 ; infill
G1 X-153.572 Y-99.722 E3176.51593 ; infill
G1 F24000
G1 X-153.572 Y-101.072 F30000.000 ; move to first wipe and retract point
G1 X153.572 Y-101.072 E0.0 F4200.000 ; wipe and retract
G1 E3176.41593 F4200.00000 ; retract
G92 E0 ; reset extrusion distance
G1 Z38.000 F30000.000 ; lift Z
G1 X-145.696 Y-93.196 F30000.000 ; move to first infill point
G1 Z18.000 F30000.000 ; restore layer Z
G1 E0.10000 F4200.00000 ; unretract
G1 X145.696 Y-93.196 E910.01143 F4200.000 ; infill
G1 X145.696 Y93.196 E1492.04694 ; infill
G1 X-145.696 Y93.196 E2401.95836 ; infill
G1 X-145.696 Y-91.846 E2979.77833 ; infill
G1 F24000
G1 X-145.696 Y-93.196 F30000.000 ; move to first wipe and retract point
G1 X145.696 Y-93.196 E0.0 F4200.000 ; wipe and retract
G1 E2979.67833 F4200.00000 ; retract
G92 E0 ; reset extrusion distance
G1 Z38.000 F30000.000 ; lift Z
G1 X-137.832 Y-85.311 F30000.000 ; move to first infill point
G1 Z18.000 F30000.000 ; restore layer Z
G1 E0.10000 F4200.00000 ; unretract
G1 X137.775 Y-85.311 E860.71847 F4200.000 ; infill
G1 X137.775 Y85.296 E1393.46103 ; infill
G1 X-137.832 Y85.296 E2254.07951 ; infill
G1 X-137.832 Y-83.961 E2782.60652 ; infill
G1 F24000
G1 X-137.832 Y-85.311 F30000.000 ; move to first wipe and retract point
G1 X137.775 Y-85.311 E0.0 F4200.000 ; wipe and retract
G1 E2782.50652 F4200.00000 ; retract
G92 E0 ; reset extrusion distance
G1 Z38.000 F30000.000 ; lift Z
G1 X-129.956 Y-77.436 F30000.000 ; move to first infill point
G1 Z18.000 F30000.000 ; restore layer Z
G1 E0.10000 F4200.00000 ; unretract
G1 X129.900 Y-77.436 E811.53407 F4200.000 ; infill
G1 X129.900 Y77.420 E1295.09223 ; infill
G1 X-129.956 Y77.420 E2106.52631 ; infill
G1 X-129.956 Y-76.086 E2585.86892 ; infill
G1 F24000
G1 X-129.956 Y-77.436 F30000.000 ; move to first wipe and retract point
G1 X129.900 Y-77.436 E0.0 F4200.000 ; wipe and retract
G1 E2585.76892 F4200.00000 ; retract
G92 E0 ; reset extrusion distance
G1 Z38.000 F30000.000 ; lift Z
G1 X-153.572 Y-101.072 F30000.000 ; move to first infill point
G1 Z21.000 F30000.000 ; restore layer Z
G1 E0.10000 F4200.00000 ; unretract
G1 X153.572 Y-101.072 E959.19583 F4200.000 ; infill
G1 X153.572 Y101.072 E1590.41574 ; infill
G1 X-153.572 Y101.072 E2549.51156 ; infill
G1 X-153.572 Y-99.722 E3176.51593 ; infill
G1 F24000
G1 X-153.572 Y-101.072 F30000.000 ; move to first wipe and retract point
G1 X153.572 Y-101.072 E0.0 F4200.000 ; wipe and retract
G1 E3176.41593 F4200.00000 ; retract
G92 E0 ; reset extrusion distance
G1 Z41.000 F30000.000 ; lift Z
G1 X-145.696 Y-93.196 F30000.000 ; move to first infill point
G1 Z21.000 F30000.000 ; restore layer Z
G1 E0.10000 F4200.00000 ; unretract
G1 X145.696 Y-93.196 E910.01143 F4200.000 ; infill
G1 X145.696 Y93.196 E1492.04694 ; infill
G1 X-145.696 Y93.196 E2401.95836 ; infill
G1 X-145.696 Y-91.846 E2979.77833 ; infill
G1 F24000
G1 X-145.696 Y-93.196 F30000.000 ; move to first wipe and retract point
G1 X145.696 Y-93.196 E0.0 F4200.000 ; wipe and retract
G1 E2979.67833 F4200.00000 ; retract
G92 E0 ; reset extrusion distance
G1 Z41.000 F30000.000 ; lift Z
G1 X-137.832 Y-85.311 F30000.000 ; move to first infill point
G1 Z21.000 F30000.000 ; restore layer Z
G1 E0.10000 F4200.00000 ; unretract
G1 X137.775 Y-85.311 E860.71847 F4200.000 ; infill
G1 X137.775 Y85.296 E1393.46103 ; infill
G1 X-137.832 Y85.296 E2254.07951 ; infill
G1 X-137.832 Y-83.961 E2782.60652 ; infill
G1 F24000
G1 X-137.832 Y-85.311 F30000.000 ; move to first wipe and retract point
G1 X137.775 Y-85.311 E0.0 F4200.000 ; wipe and retract
G1 E2782.50652 F4200.00000 ; retract
